P2
48 48
255
26 29 39 35 30 35 28 22 26 14 32 27 13 25 35 33 26 25 31 22 35 32 31 35 29 32 25 30 38 36 29 48 25 43 35 35 24 27 35 23 26 34 43 37 41 30 30 36
16 36 21 34 16 42 39 28 32 32 32 21 22 34 45 30 36 39 22 20 23 33 36 34 41 26 35 10 39 43 48 35 22 22 39 30 19 19 45 29 35 18 33 37 40 39 30 36
34 44 27 31 25 32 23 34 39 20 27 30 32 26 26 31 37 36 33 14 29 27 17 36 20 27 20 32 33 27 29 37 20 27 16 29 40 24 38 28 27 22 38 44 42 35 26 41
16 34 29 25 57 31 20 20 25 35 25 31 39 32 35 38 41 26 37 41 18 37 14 30 20 32 31 43 30 36 33 27 24 26 29 35 20 31 23 35 26 19 27 28 17 46 29 29
30 20 41 44 35 29 40 18 34 26 28 28 49 34 25 23 29 31 37 31 20 33 37 45 41 28 33 35 17 22 27 37 27 29 24 32 21 31 27 30 26 25 29 19 40 26 40 51
23 24 28 28 18 43 35 44 22 64 70 74 67 72 75 51 17 21 34 27 39 33 18 25 46 22 29 38 33 29 33 38 27 25 32 27 54 38 24 25 26 43 41 33 34 37 15 27
40 30 26 28 33 39 36 37 48 80 84 114 115 106 85 73 55 29 29 20 27 32 43 24 34 29 32 20 41 22 20 35 20 44 32 33 24 36 35 22 37 32 36 31 35 23 25 25
31 27 21 28 21 19 28 53 78 85 126 136 153 142 125 99 75 47 37 38 32 41 36 29 25 24 16 28 27 29 26 30 38 23 22 26 35 25 28 24 43 25 45 14 16 21 28 33
30 36 28 31 31 17 25 57 85 116 137 148 166 160 143 126 92 62 33 29 31 35 24 28 16 17 34 39 20 27 35 31 41 33 35 32 49 25 30 39 31 37 26 12 39 15 30 30
39 22 30 39 10 26 24 75 91 137 168 179 201 172 171 139 101 71 34 34 42 50 47 41 34 21 39 26 34 31 43 33 28 26 25 33 27 37 34 32 36 23 38 34 36 36 39 30
33 37 24 27 42 34 57 70 105 146 169 199 204 192 169 136 101 63 45 29 30 32 38 46 36 31 30 46 46 61 65 56 62 26 33 26 35 36 10 38 24 39 31 25 37 47 25 36
23 22 35 38 28 28 44 76 107 146 172 187 199 185 169 134 91 72 40 34 34 19 28 29 52 49 36 55 83 90 98 102 73 54 38 23 29 20 26 38 38 38 35 25 34 30 39 32
14 32 39 34 45 23 25 57 99 120 145 163 169 163 144 124 92 70 37 35 34 32 33 33 34 24 57 79 103 122 121 131 87 73 45 15 26 35 32 23 21 29 37 30 30 32 17 29
31 29 29 18 32 28 17 41 77 90 124 136 135 129 120 92 83 57 29 35 47 31 24 35 31 17 54 92 125 139 152 145 115 88 61 30 23 33 41 32 17 17 29 25 36 13 23 34
32 21 21 31 31 37 25 36 53 72 95 99 108 96 88 77 60 20 30 42 36 33 27 24 32 42 62 83 135 151 146 152 120 104 59 31 30 34 35 26 19 41 29 24 35 37 32 31
33 30 40 25 24 34 32 23 23 50 69 71 74 71 67 50 46 14 34 16 25 27 26 20 42 27 57 82 129 141 147 148 118 87 66 25 38 15 23 21 33 27 23 29 30 39 33 37
25 31 26 29 17 25 29 29 24 27 30 35 64 17 32 44 28 30 26 45 30 20 40 18 24 43 44 67 98 110 124 122 95 78 42 32 24 11 36 24 40 12 26 40 25 18 40 34
16 23 18 28 32 26 43 35 31 30 24 40 46 34 24 25 41 20 19 32 30 30 34 36 15 44 33 64 81 89 85 96 79 58 39 26 31 24 44 34 17 23 17 37 34 36 22 32
9 32 29 28 40 32 29 26 29 35 24 36 27 35 25 17 35 26 34 45 33 43 30 45 33 26 33 28 62 60 76 65 49 43 43 35 25 16 30 19 21 33 23 36 29 15 37 35
17 28 25 23 20 28 35 29 24 27 32 37 38 28 23 30 25 32 35 43 21 38 45 45 20 38 25 34 39 34 43 40 10 23 31 27 41 18 25 38 37 28 32 17 29 35 28 42
36 33 33 24 40 19 45 30 23 30 41 33 31 29 28 24 26 23 24 24 32 33 21 22 19 29 41 32 40 42 24 19 43 17 36 32 44 37 39 33 25 33 27 20 25 22 29 31
23 19 22 36 35 39 35 31 35 30 22 40 33 48 35 28 31 42 24 38 47 33 27 28 26 33 41 36 37 26 28 40 30 30 37 45 34 20 27 28 38 43 18 28 30 24 26 36
29 37 32 23 32 23 28 36 20 31 48 21 24 32 38 28 26 23 32 37 42 26 29 45 39 38 22 28 33 35 40 24 19 36 30 37 33 44 27 23 19 23 41 1 32 28 15 33
34 19 38 36 31 14 40 19 31 30 29 33 21 38 30 45 40 20 30 31 45 35 23 33 40 28 38 39 26 38 25 23 24 33 44 38 35 38 15 32 38 46 30 41 28 23 25 28
34 31 28 37 34 17 32 24 30 30 36 40 32 26 11 27 27 58 67 87 87 82 71 68 32 29 34 18 43 23 35 39 25 29 33 39 43 34 27 32 33 22 31 29 26 32 42 41
23 38 34 30 22 31 35 33 34 27 33 27 34 36 16 21 59 81 87 103 118 107 87 73 60 25 33 24 30 34 37 36 39 36 45 32 11 38 30 24 30 36 26 30 39 22 36 47
37 23 39 19 30 21 30 28 26 26 31 39 15 37 42 71 90 117 139 135 140 145 120 108 80 69 15 20 40 21 37 23 20 30 27 24 24 34 34 30 24 19 35 39 35 18 43 37
27 34 21 32 27 32 41 30 33 39 26 42 32 21 58 79 117 139 151 167 182 173 154 134 116 87 61 30 22 34 26 21 20 32 35 33 32 25 37 24 18 30 36 42 29 32 17 18
42 40 21 40 31 21 17 13 28 40 24 46 39 36 79 105 121 167 174 198 187 200 181 158 132 92 74 41 37 29 36 35 33 23 44 27 26 20 25 27 34 35 39 37 26 40 23 38
25 25 17 32 36 24 38 23 41 44 19 25 29 31 80 116 143 171 200 212 220 216 201 165 138 116 71 27 33 23 24 37 29 18 37 29 28 40 29 35 33 39 13 34 36 37 33 22
34 27 48 21 38 14 21 35 38 19 37 42 24 54 89 115 152 164 220 224 223 232 194 182 144 113 83 54 34 40 38 36 26 44 25 20 46 23 26 14 39 34 29 31 33 21 40 33
20 19 22 20 16 32 25 37 31 35 26 21 54 41 65 105 139 174 193 224 229 222 205 167 142 108 91 40 32 39 24 26 33 33 25 29 16 32 33 8 24 41 24 27 26 39 36 15
35 43 45 27 47 40 19 21 31 15 35 40 34 21 70 107 112 163 179 189 204 197 182 155 125 89 68 24 25 43 19 29 36 47 39 25 45 31 19 23 16 27 29 43 45 31 39 24
48 30 28 15 24 29 28 36 29 27 34 36 26 31 59 85 114 136 164 172 174 171 153 126 124 84 63 33 37 24 37 25 28 28 10 25 33 35 62 54 37 36 23 34 26 29 29 23
29 26 24 35 26 41 43 24 35 31 34 25 45 26 37 64 91 114 132 140 156 143 131 119 89 71 37 32 35 31 29 34 25 31 27 39 55 80 92 78 72 32 26 22 22 37 26 34
44 36 38 10 19 45 36 32 32 25 51 32 36 29 30 38 75 93 101 117 118 102 93 84 76 43 24 21 37 38 25 26 44 21 42 50 76 106 118 89 75 47 21 26 26 14 28 22
26 28 40 30 39 40 37 16 37 35 36 29 30 30 28 38 23 57 73 71 82 82 73 70 34 29 22 28 33 36 29 20 37 33 31 60 87 115 126 101 72 50 19 39 41 21 24 29
28 27 24 32 10 11 28 39 28 40 36 22 23 35 28 13 27 35 39 31 53 12 16 27 37 24 37 33 37 40 22 20 26 31 37 46 80 92 105 112 76 51 39 20 26 22 30 36
32 37 28 15 38 25 22 34 36 22 29 32 40 37 45 34 27 24 40 6 23 23 33 34 19 19 35 39 34 31 20 43 32 37 22 48 52 89 82 75 53 41 37 37 27 34 21 31
13 9 22 20 42 22 19 19 38 36 21 28 39 30 26 46 32 19 50 33 16 23 31 51 23 28 31 30 37 21 29 39 29 26 36 32 31 51 56 51 33 19 29 27 30 36 24 24
27 38 21 18 36 36 23 38 28 33 31 10 27 45 19 27 32 24 45 24 24 27 31 24 36 29 27 30 40 26 41 36 31 35 33 33 34 28 38 30 30 41 25 18 39 21 33 29
25 31 27 35 36 27 10 23 31 20 20 24 36 29 28 20 28 35 15 36 35 36 25 35 26 38 22 21 39 26 36 29 17 36 31 15 35 13 36 14 36 23 39 42 19 37 41 26
29 38 19 32 28 34 32 32 26 39 38 15 27 26 37 28 40 37 15 42 21 26 40 27 25 29 37 38 12 37 32 36 38 20 13 40 34 10 26 26 41 17 33 33 25 33 22 27
42 15 5 24 24 27 22 31 19 26 38 34 32 15 29 33 20 37 13 39 23 31 27 29 29 20 37 15 34 34 32 20 36 36 29 25 25 20 31 27 32 26 12 35 32 39 21 38
25 30 42 45 36 30 26 35 22 43 37 33 11 22 29 40 28 18 21 31 18 18 37 29 32 29 35 44 33 28 46 40 29 18 37 31 22 16 40 14 38 23 21 31 27 38 13 30
39 25 29 22 37 19 42 25 20 30 22 18 30 25 31 23 38 35 20 16 23 24 45 27 30 14 28 36 33 17 24 47 26 30 12 31 32 15 19 29 23 41 39 26 14 31 47 27
32 28 32 39 29 38 29 29 23 38 39 42 40 24 31 34 40 41 19 20 30 38 41 31 40 20 29 48 30 29 44 38 41 22 29 24 35 38 20 35 35 19 6 23 36 43 27 23
36 31 20 26 35 23 32 29 27 30 24 10 26 31 42 43 33 26 27 22 32 38 40 32 40 32 21 10 37 20 45 36 32 29 18 31 35 38 20 31 34 37 30 26 41 33 32 26
